svg/u1f403.svg

<svg viewBox="0 0 128 128" xmlns="http://www.w3.org/2000/svg">
  <path d="M119.88,74.83c0,0-2.21-4.43-2.67-7.6c-0.56-3.87-1.29-6.06-1.62-8.66c-0.44-3.44-1.55-5-2.11-5.91 l-0.42,5.21c0,0-2.28,4.91,0.07,10.28c3.14,7.17,3.24,6.76,3.24,6.76L119.88,74.83z" fill="#858585"/>
  <path d="M115.1,87.08c-2.33-3.14-2.87-5.56-2.25-8.94c0.63-3.46,1.89-6.18,5.28-5.98 c2.39,0.14,4.01,2.11,3.45,5.98c-0.36,2.45-2.02,3.62-1.41,6.12c0.84,3.45,3.15,3.82,3.6,4.65 C124.22,89.73,118.46,91.61,115.1,87.08z" fill="#5D6265"/>
  <path d="M52.17,84.83L41.4,89.05c0,0,3.24,4.15,3.38,5.56c0.14,1.41,0.14,8.24-0.07,9.08 c-0.21,0.84-3.45,5.49-2.39,6.69c1.06,1.2,4.29,1.62,7.04,1.34c2.75-0.28,4.79-2.46,4.93-3.45c0.14-0.99,0.28-6.97,0.42-8.45 s1.9-11.97,1.9-11.97L52.17,84.83z" fill="#858585"/>
  <path d="M95.32,85.25l-7.18,4.01c0,0,0.63,3.38,0.21,5.28s-2.39,3.87-1.48,5c0.92,1.13,4.58,1.06,6.41,0.92 c1.83-0.14,3.66-1.13,3.94-2.11c0.28-0.99,0.35-12.67,0.35-12.67L95.32,85.25z" fill="#858585"/>
  <path d="M57.52,59L27.39,72.3l-11.54-5.63c0,0-0.36,2.32-0.21,3.73c0.28,2.6,1.69,10.14,12.53,11.76 c10.84,1.62,18.86-3.73,18.86-3.73l20.48-10.7L57.52,59z" fill="#858585"/>
  <path d="M47.66,25.37c0,0-11.91-1.5-19.29,5.35s-7,17.08-7,19.9s0.38,4.69-0.66,6.48 c-1.04,1.78-4.87,5.14-4.94,9.64c-0.06,3.58,29.05,3.12,29.05,3.12s5.11-0.47,7.85-3c2.74-2.53,4.09-5.68,4.09-5.68 s1.35,5.09-2.69,8.66c-2.74,2.42-6.4,2.56-6.4,2.56s-0.47,3.85-5.01,7.13c-3.84,2.78-8.41,2.82-8.41,2.82S36.5,88.72,47,91.63 c10.49,2.91,13.9,2.72,13.9,2.72s1.51,9.57,1.61,11.36c0.09,1.78-0.66,10.61-0.19,11.45c0.47,0.84,3.5,3.28,6.43,3 c2.93-0.28,4.16-3.47,4.16-4.79c0-1.31-0.47-7.98-0.57-9.29c-0.09-1.31,0.85-9.85,0.85-9.85s4.82,0.47,10.78-1.22 c5.96-1.69,9.26-6.48,13.52-6.66s7.37,3.47,7.28,7.41c-0.09,3.94-1.89,7.79-1.13,8.92c0.76,1.13,2.55,1.88,5.2,1.78 c2.65-0.09,4.92-1.41,5.2-2.44c0.28-1.03,0.57-12.67,0.66-14.55c0.09-1.88,2.65-12.86,3.03-19.99c0.38-7.13-1.04-15.58-4.54-19.8 c-3.5-4.22-7.94-6.01-9.64-6.48c-1.7-0.47-7.1-0.9-8.79-1.69c-8.04-3.75-11.63-14.36-26.66-18.3 C59.61,20.99,50.01,24.61,47.66,25.37z" fill="#ADADB7"/>
  <path d="M28,60.29c-9.85-0.56-12.15,4.13-12.39,7.7C15.33,72.21,19.34,78.6,26.69,80 c8.92,1.69,17.13-0.66,18.11-8.92C45.74,63.2,34,60.63,28,60.29z" fill="#DFDFDF"/>
  <path d="M48.65,53.34c0,2.23-1.41,4.13-2.86,4.04c-1.42-0.09-2.58-1.81-2.58-4.04c0-2.23,1.17-3.82,2.58-4.04 C47.62,49.02,48.65,51.11,48.65,53.34z" fill="#333333"/>
  <ellipse cx="25.48" cy="50.29" fill="#333333" rx="2.47" ry="3.8"/>
  <ellipse cx="35.02" cy="72" fill="#333333" rx="3.19" ry="2.26" transform="matrix(0.8966 -0.4428 0.4428 0.8966 -28.2617 22.9485)"/>
  <ellipse cx="22.26" cy="69.93" fill="#333333" rx="2.2" ry="3.19" transform="matrix(0.7407 -0.6719 0.6719 0.7407 -41.2119 33.0893)"/>
  <path d="M39.92,25.63c0,0-2.8-3.4-9.67-2.04c-4.84,0.96-7.19,5.33-9.67,8.26c-2.06,2.44-5.65,3.05-7.51,1.13 c-1.38-1.43-1.16-2.88-0.91-3.96c0.56-2.37,3.12-3.68,3.25-4.58c0.19-1.31-5.89-1.69-8.8,2.82s-1.9,12.39,2.6,15.2 c4.5,2.82,9.01,4.32,15.02-0.94s10.68-11.94,11.94-13.21C38.56,25.91,39.92,25.63,39.92,25.63z" fill="#B79277"/>
  <path d="M47.71,26.5c0,0,2.88-1.76,6.99-1.08c4.65,0.77,9.15,7.09,10.65,8.78c1.5,1.69,5.91,6.87,12.58,4.81 c2.99-0.93,4.17-3,4.62-5.36c0.55-2.9-0.04-5.2-0.39-6.31c-0.29-0.92-1.34-2.63-0.07-3.54c0.87-0.63,2.39,0.14,3.24,1.55 c0.84,1.41,2.75,7.44,1.81,11.57c-0.94,4.13-6.38,12.48-14.55,12.39s-18.96-3.47-23.37-8.73S45.08,28.47,47.71,26.5z" fill="#B79277"/>
  <path d="M21.43,47.24c0,0-1.77,0.93-4.39,1.09c-2.7,0.16-5.95-0.29-9.36-3.7c-1.69-1.69-3.03-5.23-3.33-7.34 c-0.68-4.71,1.64-8.92,1.64-8.92S5.27,41.71,16.27,42.27c7.41,0.38,12.86-8.17,14.92-10.04s3-1.31,3-1.31s-2.34,5.3-5.26,8.26 c-2.96,3-6.62,4.62-7.04,5.12C21.48,44.78,21.43,47.24,21.43,47.24z" fill="#895A4E"/>
  <path d="M48.27,26.22c0.65-0.67-5.26,1.22-4.6,7.32c0.66,6.1,8.96,12.81,14.64,15.3 c6.85,3,17.08,4.22,23.56,0.19c6.48-4.04,7.88-12.48,6.76-17.36c-1.13-4.88-4.13-8.35-5.73-7.88c-0.94,0.28,0.8,2.05,1.92,5.02 c0.78,2.05,0.9,5.11,0.7,6.8c-0.42,3.68-1.78,6.28-3.59,8.19c-2.33,2.45-6.03,4.13-11.83,3.73c-4.87-0.34-9.42-2.13-12.91-4.26 c-4.23-2.57-7.19-5.75-8.27-7.19C46.96,33.44,45.08,29.5,48.27,26.22z" fill="#895A4E"/>
</svg>

<svg viewBox="0 0 128 128" xmlns="http://www.w3.org/2000/svg">
  <defs/>
  <path d="M119.88,74.83 C119.88,74.83 117.67,70.4 117.21,67.23 C116.65,63.36 115.92,61.17 115.59,58.57 C115.15,55.13 114.04,53.57 113.48,52.66 L113.06,57.87 C113.06,57.87 110.78,62.78 113.13,68.15 C116.27,75.32 116.37,74.91 116.37,74.91 L119.88,74.83 Z" fill="#858585"/>
  <path d="M115.1,87.08 C112.77,83.94 112.23,81.52 112.85,78.14 C113.48,74.68 114.74,71.96 118.13,72.16 C120.52,72.3 122.14,74.27 121.58,78.14 C121.22,80.59 119.56,81.76 120.17,84.26 C121.01,87.71 123.32,88.08 123.77,88.91 C124.22,89.73 118.46,91.61 115.1,87.08 Z" fill="#5D6265"/>
  <path d="M52.17,84.83 L41.4,89.05 C41.4,89.05 44.64,93.2 44.78,94.61 C44.92,96.02 44.92,102.85 44.71,103.69 C44.5,104.53 41.26,109.18 42.32,110.38 C43.38,111.58 46.61,112 49.36,111.72 C52.11,111.44 54.15,109.26 54.29,108.27 C54.43,107.28 54.57,101.3 54.71,99.82 C54.85,98.34 56.61,87.85 56.61,87.85 L52.17,84.83 Z" fill="#858585"/>
  <path d="M95.32,85.25 L88.14,89.26 C88.14,89.26 88.77,92.64 88.35,94.54 C87.93,96.44 85.96,98.41 86.87,99.54 C87.79,100.67 91.45,100.6 93.28,100.46 C95.11,100.32 96.94,99.33 97.22,98.35 C97.5,97.36 97.57,85.68 97.57,85.68 L95.32,85.25 Z" fill="#858585"/>
  <path d="M57.52,59 L27.39,72.3 L15.85,66.67 C15.85,66.67 15.49,68.99 15.64,70.4 C15.92,73 17.33,80.54 28.17,82.16 C39.01,83.78 47.03,78.43 47.03,78.43 L67.51,67.73 L57.52,59 Z" fill="#858585"/>
  <path d="M47.66,25.37 C47.66,25.37 35.75,23.87 28.37,30.72 C20.99,37.57 21.37,47.8 21.37,50.62 C21.37,53.44 21.75,55.31 20.71,57.1 C19.67,58.88 15.84,62.24 15.77,66.74 C15.71,70.32 44.82,69.86 44.82,69.86 C44.82,69.86 49.93,69.39 52.67,66.86 C55.41,64.33 56.76,61.18 56.76,61.18 C56.76,61.18 58.11,66.27 54.07,69.84 C51.33,72.26 47.67,72.4 47.67,72.4 C47.67,72.4 47.2,76.25 42.66,79.53 C38.82,82.31 34.25,82.35 34.25,82.35 C34.25,82.35 36.5,88.72 47,91.63 C57.49,94.54 60.9,94.35 60.9,94.35 C60.9,94.35 62.41,103.92 62.51,105.71 C62.6,107.49 61.85,116.32 62.32,117.16 C62.79,118 65.82,120.44 68.75,120.16 C71.68,119.88 72.91,116.69 72.91,115.37 C72.91,114.06 72.44,107.39 72.34,106.08 C72.25,104.77 73.19,96.23 73.19,96.23 C73.19,96.23 78.01,96.7 83.97,95.01 C89.93,93.32 93.23,88.53 97.49,88.35 C101.75,88.17 104.86,91.82 104.77,95.76 C104.68,99.7 102.88,103.55 103.64,104.68 C104.4,105.81 106.19,106.56 108.84,106.46 C111.49,106.37 113.76,105.05 114.04,104.02 C114.32,102.99 114.61,91.35 114.7,89.47 C114.79,87.59 117.35,76.61 117.73,69.48 C118.11,62.35 116.69,53.9 113.19,49.68 C109.69,45.46 105.25,43.67 103.55,43.2 C101.85,42.73 96.45,42.3 94.76,41.51 C86.72,37.76 83.13,27.15 68.1,23.21 C59.61,20.99 50.01,24.61 47.66,25.37 Z" fill="#ADADB7"/>
  <path d="M28,60.29 C18.15,59.73 15.85,64.42 15.61,67.99 C15.33,72.21 19.34,78.6 26.69,80 C35.61,81.69 43.82,79.34 44.8,71.08 C45.74,63.2 34,60.63 28,60.29 Z" fill="#DFDFDF"/>
  <path d="M48.65,53.34 C48.65,55.57 47.24,57.47 45.79,57.38 C44.37,57.29 43.21,55.57 43.21,53.34 C43.21,51.11 44.38,49.52 45.79,49.3 C47.62,49.02 48.65,51.11 48.65,53.34 Z" fill="#333333"/>
  <path d="M27.95,50.29 A2.47 3.8 0 1 1 23.01,50.29 A2.47 3.8 0 1 1 27.95,50.29 Z" fill="#333333"/>
  <path d="M37.879,70.584 C38.432,71.703 37.599,73.243 36.02,74.023 C34.44,74.803 32.711,74.528 32.159,73.409 C31.606,72.29 32.438,70.751 34.018,69.971 C35.598,69.19 37.326,69.465 37.879,70.584 Z" fill="#333333"/>
  <path d="M23.892,68.452 C25.075,69.757 25.305,71.476 24.405,72.293 C23.505,73.109 21.816,72.713 20.633,71.408 C19.449,70.103 19.219,68.383 20.119,67.567 C21.019,66.751 22.708,67.147 23.892,68.452 Z" fill="#333333"/>
  <path d="M39.92,25.63 C39.92,25.63 37.12,22.23 30.25,23.59 C25.41,24.55 23.06,28.92 20.58,31.85 C18.52,34.29 14.93,34.9 13.07,32.98 C11.69,31.55 11.91,30.1 12.16,29.02 C12.72,26.65 15.28,25.34 15.41,24.44 C15.6,23.13 9.52,22.75 6.61,27.26 C3.7,31.77 4.71,39.65 9.21,42.46 C13.71,45.28 18.22,46.78 24.23,41.52 C30.24,36.26 34.91,29.58 36.17,28.31 C38.56,25.91 39.92,25.63 39.92,25.63 Z" fill="#B79277"/>
  <path d="M47.71,26.5 C47.71,26.5 50.59,24.74 54.7,25.42 C59.35,26.19 63.85,32.51 65.35,34.2 C66.85,35.89 71.26,41.07 77.93,39.01 C80.92,38.08 82.1,36.01 82.55,33.65 C83.1,30.75 82.51,28.45 82.16,27.34 C81.87,26.42 80.82,24.71 82.09,23.8 C82.96,23.17 84.48,23.94 85.33,25.35 C86.17,26.76 88.08,32.79 87.14,36.92 C86.2,41.05 80.76,49.4 72.59,49.31 C64.42,49.22 53.63,45.84 49.22,40.58 C44.81,35.32 45.08,28.47 47.71,26.5 Z" fill="#B79277"/>
  <path d="M21.43,47.24 C21.43,47.24 19.66,48.17 17.04,48.33 C14.34,48.49 11.09,48.04 7.68,44.63 C5.99,42.94 4.65,39.4 4.35,37.29 C3.67,32.58 5.99,28.37 5.99,28.37 C5.99,28.37 5.27,41.71 16.27,42.27 C23.68,42.65 29.13,34.1 31.19,32.23 C33.25,30.36 34.19,30.92 34.19,30.92 C34.19,30.92 31.85,36.22 28.93,39.18 C25.97,42.18 22.31,43.8 21.89,44.3 C21.48,44.78 21.43,47.24 21.43,47.24 Z" fill="#895A4E"/>
  <path d="M48.27,26.22 C48.92,25.55 43.01,27.44 43.67,33.54 C44.33,39.64 52.63,46.35 58.31,48.84 C65.16,51.84 75.39,53.06 81.87,49.03 C88.35,44.99 89.75,36.55 88.63,31.67 C87.5,26.79 84.5,23.32 82.9,23.79 C81.96,24.07 83.7,25.84 84.82,28.81 C85.6,30.86 85.72,33.92 85.52,35.61 C85.1,39.29 83.74,41.89 81.93,43.8 C79.6,46.25 75.9,47.93 70.1,47.53 C65.23,47.19 60.68,45.4 57.19,43.27 C52.96,40.7 50,37.52 48.92,36.08 C46.96,33.44 45.08,29.5 48.27,26.22 Z" fill="#895A4E"/>
</svg>
